ducvv03/ws/14cm.csv
segment_idx,openarm_left_joint1,openarm_left_joint2,openarm_left_joint3,openarm_left_joint4,openarm_left_joint5,openarm_left_joint6,openarm_left_joint7,openarm_right_joint1,openarm_right_joint2,openarm_right_joint3,openarm_right_joint4,openarm_right_joint5,openarm_right_joint6,openarm_right_joint7
0,-0.0015544137721209728,-0.009923610134872597,0.00832434121797677,-0.00044383551448407563,-0.00955873845382723,-0.0032211798241746875,0.0017496226376034069,0.0015544137721209728,0.009923610134872597,-0.00832434121797677,-0.00044383551448407563,0.00955873845382723,0.0032211798241746875,-0.0017496226376034069
0,-0.002082770983688533,-0.009989670519717038,0.00832342769484967,-0.0014569753548130393,-0.009612929243594408,-0.003166898349300027,0.0022039115522056816,0.002082770983688533,0.009989670519717038,-0.00832342769484967,-0.0014569753548130393,0.009612929243594408,0.003166898349300027,-0.0022039115522056816
1,-0.002082770983688533,-0.009989670519717038,0.00832342769484967,-0.0014569753548130393,-0.009612929243594408,-0.003166898349300027,0.0022039115522056816,0.002082770983688533,0.009989670519717038,-0.00832342769484967,-0.0014569753548130393,0.009612929243594408,0.003166898349300027,-0.0022039115522056816
1,0.0006682299294421476,-0.009998866172792527,0.008322400881454702,0.003543024645186953,-0.009582652059810681,-0.0031370705701911305,-0.00031747965265891895,-0.0006682299294421476,0.009998866172792527,-0.008322400881454702,0.003543024645186953,0.009582652059810681,0.0031370705701911305,0.00031747965265891895
1,0.008921232668834211,-0.010026453132019,0.008319320441269793,0.018543024645186968,-0.009491820508459503,-0.0030475872328644426,-0.00788165326725274,-0.008921232668834211,0.010026453132019,-0.008319320441269793,0.018543024645186968,0.009491820508459503,0.0030475872328644426,0.00788165326725274
1,0.022676237234487685,-0.01007243139739645,0.008314186374294947,0.04354302464518705,-0.009340434589540871,-0.002898448337319961,-0.020488609291575807,-0.022676237234487685,0.01007243139739645,-0.008314186374294947,0.04354302464518705,0.009340434589540871,0.002898448337319961,0.020488609291575807
1,0.04193324362640256,-0.010136800968924883,0.008306998680530163,0.07854302464518718,-0.009128494303054787,-0.0026896538835576877,-0.0381383477256281,-0.04193324362640256,0.010136800968924883,-0.008306998680530163,0.07854302464518718,0.009128494303054787,0.0026896538835576877,0.0381383477256281
1,0.0666922465707606,-0.01021956182897573,0.008297757361943896,0.12354301505991572,-0.008855999707044255,-0.002421203928759094,-0.06083086373576571,-0.0666922465707606,0.01021956182897573,-0.008297757361943896,0.12354301505991572,0.008855999707044255,0.002421203928759094,0.06083086373576571
1,0.09695324582700234,-0.010320713976744883,0.008286462418625936,0.17854299545215085,-0.008522950804156848,-0.0020930984755324527,-0.08856615710150718,-0.09695324582700234,0.010320713976744883,-0.008286462418625936,0.17854299545215085,0.008522950804156848,0.0020930984755324527,0.08856615710150718
1,0.13271624460924528,-0.010440257422976036,0.008273113849376613,0.2435429716636165,-0.008129347559018372,-0.0017053374890286328,-0.12134423076870678,-0.13271624460924528,0.010440257422976036,-0.008273113849376613,0.2435429716636165,0.008129347559018372,0.0017053374890286328,0.12134423076870678
1,0.1739812422293749,-0.010578192165369057,0.008257711654452764,0.31854294244365045,-0.007675189979202136,-0.0012579209767085296,-0.15916508410668276,-0.1739812422293749,0.010578192165369057,-0.008257711654452764,0.31854294244365045,0.007675189979202136,0.0012579209767085296,0.15916508410668276
1,0.22074823471051133,-0.0107345181906306,0.008240255835338762,0.4035429005641929,-0.007160478108477197,-0.0007508489816915373,-0.20202871347048185,-0.22074823471051133,0.0107345181906306,-0.008240255835338762,0.4035429005641929,0.007160478108477197,0.0007508489816915373,0.20202871347048185
1,0.27301722648884347,-0.010909235513589325,0.008220746390378801,0.49854285408810706,-0.006585211898019398,-0.00018412145587819493,-0.24993512292603057,-0.27301722648884347,0.010909235513589325,-0.008220746390378801,0.49854285408810706,0.006585211898019398,0.00018412145587819493,0.24993512292603057
1,0.33078821382895424,-0.011102344121759011,0.008199183320967123,0.603542796226197,-0.0059493913889402845,0.0004422615602301678,-0.3028843090496849,-0.33078821382895424,0.011102344121759011,-0.008199183320967123,0.603542796226197,0.0059493913889402845,-0.0004422615602301678,0.3028843090496849
1,0.39406119705602727,-0.011313844016226638,0.008175566626982354,0.7185427275694899,-0.00525301657766093,0.001128300070159361,-0.36087627213948736,-0.39406119705602727,0.011313844016226638,-0.008175566626982354,0.7185427275694899,0.00525301657766093,-0.001128300070159361,0.36087627213948736
1,0.4625263843271218,-0.011542699669050463,0.008150011938489346,0.8429795951552224,-0.0044994969957880444,0.0018706351500293985,-0.42362707683780093,-0.4625263843271218,0.011542699669050463,-0.008150011938489346,0.8429795951552224,0.0044994969957880444,-0.0018706351500293985,0.42362707683780093
1,0.5286902512826028,-0.01176386279689658,0.008125316219731643,0.9632337663546522,-0.003771305467355081,0.002588018121121393,-0.4842686387599059,-0.5286902512826028,0.01176386279689658,-0.008125316219731643,0.9632337663546522,0.003771305467355081,-0.002588018121121393,0.4842686387599059
1,0.5893521164118223,-0.011966634618591715,0.008102674127763882,1.073487937554082,-0.0031036683064895724,0.003245745533995594,-0.5398674182722816,-0.5893521164118223,0.011966634618591715,-0.008102674127763882,1.073487937554082,0.0031036683064895724,-0.003245745533995594,0.5398674182722816
1,0.644511979714781,-0.01215101513413587,0.008082085662586058,1.1737421087535127,-0.00249658551319151,0.0038438173886520075,-0.5904234153749284,-0.644511979714781,0.01215101513413587,-0.008082085662586058,1.1737421087535127,0.00249658551319151,-0.0038438173886520075,0.5904234153749284
1,0.6941698411914783,-0.012317004343529045,0.008063550824198172,1.2639962799529432,-0.0019500570874609012,0.004382233685090629,-0.6359366300678461,-0.6941698411914783,0.012317004343529045,-0.008063550824198172,1.2639962799529432,0.0019500570874609012,-0.004382233685090629,0.6359366300678461
1,0.7383257008419145,-0.01246460224677124,0.008047069612600226,1.3442504511523743,-0.0014640830292977408,0.004860994423311462,-0.6764070623510348,-0.7383257008419145,0.01246460224677124,-0.008047069612600226,1.3442504511523743,0.0014640830292977408,-0.004860994423311462,0.6764070623510348
1,0.7769795586660895,-0.012593808843862455,0.008032642027792218,1.4145046223518054,-0.0010386633387020326,0.005280099603314503,-0.7118347122244943,-0.7769795586660895,0.012593808843862455,-0.008032642027792218,1.4145046223518054,0.0010386633387020326,-0.005280099603314503,0.7118347122244943
1,0.8101314146640033,-0.012704624134802691,0.008020268069774147,1.474758793551237,-0.000673798015673774,0.005639549225099755,-0.742219579688225,-0.8101314146640033,0.012704624134802691,-0.008020268069774147,1.474758793551237,0.000673798015673774,-0.005639549225099755,0.742219579688225
1,0.8377812688356566,-0.012797048119591948,0.008009947738546016,1.52501296475067,-0.00036948706021295853,0.005939343288667223,-0.7675616647422272,-0.8377812688356566,0.012797048119591948,-0.008009947738546016,1.52501296475067,0.00036948706021295853,-0.005939343288667223,0.7675616647422272
1,0.859929121181048,-0.012871080798230222,0.008001681034107823,1.5652671359501023,-0.00012573047231960048,0.006179481794016894,-0.7878609673864998,-0.859929121181048,0.012871080798230222,-0.008001681034107823,1.5652671359501023,0.00012573047231960048,-0.006179481794016894,0.7878609673864998
1,0.8765749717001775,-0.012926722170717515,0.007995467956459569,1.5955213071495336,5.747174800629978e-05,0.0063599647411487666,-0.8031174876210426,-0.8765749717001775,0.012926722170717515,-0.007995467956459569,1.5955213071495336,-5.747174800629978e-05,-0.0063599647411487666,0.8031174876210426
1,0.8877188203930462,-0.012963972237053827,0.007991308505601254,1.6157754783489657,0.0001801196007647519,0.006480792130062852,-0.8133312254458567,-0.8877188203930462,0.012963972237053827,-0.007991308505601254,1.6157754783489657,-0.0001801196007647519,-0.006480792130062852,0.8133312254458567
1,0.8933606672596532,-0.01298283099723916,0.007989202681532876,1.6260296495483977,0.00024221308595575038,0.006541963960759144,-0.8185021808609413,-0.8933606672596532,0.01298283099723916,-0.007989202681532876,1.6260296495483977,-0.00024221308595575038,-0.006541963960759144,0.8185021808609413
1,0.8941201172371908,-0.012985369578192837,0.007988919216192672,1.6274099652980445,0.00025057150068207663,0.006550198311415343,-0.8191982440591604,-0.8941201172371908,0.012985369578192837,-0.007988919216192672,1.6274099652980445,-0.00025057150068207663,-0.006550198311415343,0.8191982440591604
2,0.8941201172371908,-0.012985369578192837,0.007988919216192672,1.6274099652980445,0.00025057150068207663,0.006550198311415343,-0.8191982440591604,-0.8941201172371908,0.012985369578192837,-0.007988919216192672,1.6274099652980445,-0.00025057150068207663,-0.006550198311415343,0.8191982440591604
2,0.8891201172371908,-0.013400295076745616,0.009757421671856328,1.624361172572158,-0.0012609971331154477,0.007554920728829816,-0.8176585226085672,-0.8891201172371908,0.013400295076745616,-0.009757421671856328,1.624361172572158,0.0012609971331154477,-0.007554920728829816,0.8176585226085672
2,0.8741201172371909,-0.014645071572403953,0.015062929038847275,1.6152147943944992,-0.0057957030345080025,0.010569087981073219,-0.8130393582567876,-0.8741201172371909,0.014645071572403953,-0.015062929038847275,1.6152147943944992,0.0057957030345080025,-0.010569087981073219,0.8130393582567876
2,0.8491201172371908,-0.016719699065167855,0.02390544131716555,1.5999708307650673,-0.013353546203495617,0.015592700068145574,-0.8053407510038214,-0.8491201172371908,0.016719699065167855,-0.02390544131716555,1.5999708307650673,0.013353546203495617,-0.015592700068145574,0.8053407510038214
2,0.8141201218243803,-0.019624177174368946,0.036284956884319985,1.5786292844809409,-0.023934525253307953,0.022625756068276465,-0.7945627022622676,-0.8141201218243803,0.019624177174368946,-0.036284956884319985,1.5786292844809409,0.023934525253307953,-0.022625756068276465,0.7945627022622676
2,0.769120146124628,-0.0233585046447855,0.052201470390283417,1.5511901647652473,-0.037538635611187275,0.031668252942006016,-0.7807052166900512,-0.769120146124628,0.0233585046447855,-0.052201470390283417,1.5511901647652473,0.037538635611187275,-0.031668252942006016,0.7807052166900512
2,0.7141201747475513,-0.02792268275358996,0.07165498727864167,1.5176534622335698,-0.05416588192985749,0.042720193781946705,-0.7637682895477914,-0.7141201747475513,0.02792268275358996,-0.07165498727864167,1.5176534622335698,0.05416588192985749,-0.042720193781946705,0.7637682895477914
2,0.649120210426991,-0.033316711273914244,0.09464550658243386,1.47801917855289,-0.07381626338284092,0.05578157803874825,-0.7437519216773592,-0.649120210426991,0.033316711273914244,-0.09464550658243386,1.47801917855289,0.07381626338284092,-0.05578157803874825,0.7437519216773592
2,0.5741202558839409,-0.039540589979956436,0.1211730273392432,1.4322873153823585,-0.09648977914754385,0.07085240516564201,-0.720656113916669,-0.5741202558839409,0.039540589979956436,-0.1211730273392432,1.4322873153823585,0.09648977914754385,-0.07085240516564201,0.720656113916669
2,0.4891203066862318,-0.046594319239520544,0.15123755111673023,1.3804578700194217,-0.12218643056387195,0.08793267605324798,-0.6944808649008596,-0.4891203066862318,0.046594319239520544,-0.15123755111673023,1.3804578700194217,0.12218643056387195,-0.08793267605324798,0.6944808649008596
2,0.3941203657302622,-0.05447789881224864,0.18483907689043722,1.322530844230183,-0.15090621675620408,0.1070223901195508,-0.6652261755218603,-0.3941203657302622,0.05447789881224864,-0.18483907689043722,1.322530844230183,0.15090621675620408,-0.1070223901195508,0.6652261755218603
2,0.28912043789848185,-0.06319132829297015,0.22197760293343932,1.2585062409917582,-0.1826491362485087,0.1281215463834491,-0.6328920472831936,-0.28912043789848185,0.06319132829297015,-0.22197760293343932,1.2585062409917582,0.1826491362485087,-0.1281215463834491,0.6328920472831936
2,0.1819504089332981,-0.07208484383262911,0.2598836948131339,1.193158400043342,-0.21504810710189753,0.14965677249870482,-0.5998896487915155,-0.1819504089332981,0.07208484383262911,-0.2598836948131339,1.193158400043342,0.21504810710189753,-0.14965677249870482,0.5998896487915155
2,0.08464782305811738,-0.08015950862357596,0.2942996672256702,1.1338273168381054,-0.24446401446116026,0.16920919035894302,-0.5699258730574744,-0.08464782305811738,0.08015950862357596,-0.2942996672256702,1.1338273168381054,0.24446401446116026,-0.16920919035894302,0.5699258730574744
2,-0.0026547628170634618,-0.08740432241741723,0.32517863472687913,1.0805938190846414,-0.2708567845528279,0.1867521633843523,-0.5430415402246198,0.0026547628170634618,0.08740432241741723,-0.32517863472687913,1.0805938190846414,0.2708567845528279,-0.1867521633843523,0.5430415402246198
2,-0.07995734869224368,-0.09381928521415289,0.35252059731676044,1.0334579067829504,-0.29422641737690036,0.20228569157493248,-0.5192366502929519,0.07995734869224368,0.09381928521415289,-0.35252059731676044,1.0334579067829504,0.29422641737690036,-0.20228569157493248,0.5192366502929519
2,-0.1472599345674242,-0.09940439701378304,0.3763255549953148,0.9924195799330321,-0.3145729129333778,0.21580977493068382,-0.4985112032624702,0.1472599345674242,0.09940439701378304,-0.3763255549953148,0.9924195799330321,0.3145729129333778,-0.21580977493068382,0.4985112032624702
2,-0.20456252044260453,-0.10415965781630757,0.39659350776254154,0.9574788385348866,-0.3318962712222602,0.22732441345160614,-0.48086519913317505,0.20456252044260453,0.10415965781630757,-0.39659350776254154,0.9574788385348866,0.3318962712222602,-0.22732441345160614,0.48086519913317505
2,-0.2518651063177846,-0.10808506762172654,0.41332445561844094,0.9286356825885138,-0.3461964922435474,0.23682960713769946,-0.4662986379050665,0.2518651063177846,0.10808506762172654,-0.41332445561844094,0.9286356825885138,0.3461964922435474,-0.23682960713769946,0.4662986379050665
2,-0.2891676921929645,-0.11118062643003992,0.426518398563013,0.9058901120939139,-0.35747357599723945,0.24432535598896382,-0.45481151957814436,0.2891676921929645,0.11118062643003992,-0.426518398563013,0.9058901120939139,0.35747357599723945,-0.24432535598896382,0.45481151957814436
2,-0.31647027806814454,-0.11344633424124778,0.43617533659625773,0.8892421270510866,-0.3657275224833366,0.24981166000539923,-0.44640384415240875,0.31647027806814454,0.11344633424124778,-0.43617533659625773,0.8892421270510866,0.3657275224833366,-0.24981166000539923,0.44640384415240875
2,-0.3337728639433244,-0.11488219105535002,0.4422952697181752,0.8786917274600323,-0.3709583317018386,0.2532885191870057,-0.4410756116278596,0.3337728639433244,0.11488219105535002,-0.4422952697181752,0.8786917274600323,0.3709583317018386,-0.2532885191870057,0.4410756116278596
2,-0.3410754498185046,-0.11548819687234675,0.4448781979287653,0.8742389133207503,-0.3731660036527456,0.25475593353378323,-0.4388268220044968,0.3410754498185046,0.11548819687234675,-0.4448781979287653,0.8742389133207503,0.3731660036527456,-0.25475593353378323,0.4388268220044968
2,-0.3413405449041335,-0.11551019581446045,0.44497196219074914,0.8740772693270036,-0.37324614553602775,0.2548092029288388,-0.43874518748653885,0.3413405449041335,0.11551019581446045,-0.44497196219074914,0.8740772693270036,0.37324614553602775,-0.2548092029288388,0.43874518748653885
3,-0.3413405449041335,-0.11551019581446045,0.44497196219074914,0.8740772693270036,-0.37324614553602775,0.2548092029288388,-0.43874518748653885,0.3413405449041335,0.11551019581446045,-0.44497196219074914,0.8740772693270036,0.37324614553602775,-0.2548092029288388,0.43874518748653885
3,-0.34238156515551266,-0.11051019581446046,0.44628507594486927,0.8709399771148589,-0.3720831403243949,0.25830781596175467,-0.4396231507078618,0.34238156515551266,0.11051019581446046,-0.44628507594486927,0.8709399771148589,0.3720831403243949,-0.25830781596175467,0.4396231507078618
3,-0.34550462590965003,-0.09551019581446052,0.4502244172072297,0.8615281004784249,-0.36859412468949637,0.2688036550605022,-0.44225704037183067,0.34550462590965003,0.09551019581446052,-0.4502244172072297,0.8615281004784249,0.36859412468949637,-0.2688036550605022,0.44225704037183067
3,-0.35070972716654575,-0.07051019581446057,0.4567899859778302,0.8458416394177015,-0.3627790986313322,0.2862967202250814,-0.4466468564784455,0.35070972716654575,0.07051019581446057,-0.4567899859778302,0.8458416394177015,0.3627790986313322,-0.2862967202250814,0.4466468564784455
3,-0.35793142061994254,-0.035824542755215794,0.4658992275983769,0.8240778335745171,-0.3547111795759741,0.3105670557947357,-0.4527374020171625,0.35793142061994254,0.035824542755215794,-0.4658992275983769,0.8240778335745171,0.3547111795759741,-0.3105670557947357,0.4527374020171625
3,-0.3644802920588628,-0.004370440732491737,0.47415979039628425,0.8043416917113378,-0.34739492266004224,0.3325762020498092,-0.45826051096430087,0.3644802920588628,0.004370440732491737,-0.47415979039628425,0.8043416917113378,0.34739492266004224,-0.3325762020498092,0.45826051096430087
3,-0.36894712299502475,0.01708366129023234,0.47979412568595137,0.7908801342724479,-0.342404676167376,0.34758812223905095,-0.46202769346879324,0.36894712299502475,-0.01708366129023234,-0.47979412568595137,0.7908801342724479,0.342404676167376,-0.34758812223905095,0.46202769346879324
3,-0.3713319134284285,0.028537763312956432,0.48280223346737816,0.7836931612578473,-0.33974044009797555,0.35560281636246105,-0.46403894953063984,0.3713319134284285,-0.028537763312956432,-0.48280223346737816,0.7836931612578473,0.33974044009797555,-0.35560281636246105,0.46403894953063984
3,-0.3717655549209225,0.03062053495894293,0.4833492166863854,0.7823863086049214,-0.33925598524219086,0.35706017876750823,-0.4644046689113579,0.3717655549209225,-0.03062053495894293,-0.4833492166863854,0.7823863086049214,0.33925598524219086,-0.35706017876750823,0.4644046689113579
4,-0.3717655549209225,0.03062053495894293,0.4833492166863854,0.7823863086049214,-0.33925598524219086,0.35706017876750823,-0.4644046689113579,0.3717655549209225,-0.03062053495894293,-0.4833492166863854,0.7823863086049214,0.33925598524219086,-0.35706017876750823,0.4644046689113579
4,-0.3714525744583636,0.029537176347786232,0.4838437747121687,0.7873863086049214,-0.3384053089821091,0.35837926621935456,-0.4600256527152728,0.3714525744583636,-0.029537176347786232,-0.4838437747121687,0.7873863086049214,0.3384053089821091,-0.35837926621935456,0.4600256527152728
4,-0.37051363307068674,0.026287100514316136,0.48532744878951856,0.8023863086049214,-0.3358532802018638,0.3623365285748935,-0.4468886041270172,0.37051363307068674,-0.026287100514316136,-0.48532744878951856,0.8023863086049214,0.3358532802018638,-0.3623365285748935,0.4468886041270172
4,-0.36894873075789203,0.02087030745853262,0.48780023891843494,0.8273863086049216,-0.3315998989014549,0.3689319658341252,-0.42499352314659117,0.36894873075789203,-0.02087030745853262,-0.48780023891843494,0.8273863086049216,0.3315998989014549,-0.3689319658341252,0.42499352314659117
4,-0.36675786778457925,0.013286798096328113,0.491262144680809,0.8623863043778246,-0.32564516580006075,0.37816557688186736,-0.39434041347610016,0.36675786778457925,-0.013286798096328113,-0.491262144680809,0.8623863043778246,0.32564516580006075,-0.37816557688186736,0.39434041347610016
4,-0.36394104553782125,0.003536577228952617,0.49571316388484854,0.9073862737645322,-0.31798908466772496,0.3900373558721624,-0.3549292945225542,0.36394104553782125,-0.003536577228952617,-0.49571316388484854,0.9073862737645322,0.31798908466772496,-0.3900373558721624,0.3549292945225542
4,-0.36049826249928296,-0.008380360399198416,0.5011532989297607,0.9623862410211147,-0.30863165137763504,0.4045473092041857,-0.3067601450424083,0.36049826249928296,0.008380360399198416,-0.5011532989297607,0.9623862410211147,0.30863165137763504,-0.4045473092041857,0.3067601450424083
4,-0.35642951887812546,-0.022464014064128922,0.5075825494850377,1.02738620280613,-0.2975728664982881,0.4216954359964066,-0.2498329679621084,0.35642951887812546,0.022464014064128922,-0.5075825494850377,1.02738620280613,0.2975728664982881,-0.4216954359964066,0.2498329679621084
4,-0.35178123447894666,-0.03855370506203688,0.5149275650075454,1.1016445824055179,-0.2849388983708201,0.44128609534120533,-0.1847972385699562,0.35178123447894666,0.03855370506203688,-0.5149275650075454,1.1016445824055179,0.2849388983708201,-0.44128609534120533,0.1847972385699562
4,-0.3474274520141195,-0.05362399950089622,0.5218072214656202,1.171198164588101,-0.27310538213754615,0.4596355468388069,-0.12388198599530148,0.3474274520141195,0.05362399950089622,-0.5218072214656202,1.171198164588101,0.27310538213754615,-0.4596355468388069,0.12388198599530148
4,-0.34369963047441016,-0.06652757671744222,0.5276977618721284,1.2307517467706848,-0.26297321842443555,0.4753468234327159,-0.07172476581281687,0.34369963047441016,0.06652757671744222,-0.5276977618721284,1.2307517467706848,0.26297321842443555,-0.4753468234327159,0.07172476581281687
4,-0.3405977698598186,-0.07726443671167488,0.53259918622707,1.2803053289532687,-0.2545424072314886,0.4884199251229323,-0.028325578022502344,0.3405977698598186,0.07726443671167488,-0.53259918622707,1.2803053289532687,0.2545424072314886,-0.4884199251229323,0.028325578022502344
4,-0.33812187017034495,-0.08583457948359424,0.5365114945304451,1.319858911135853,-0.247812948558705,0.49885485190945617,0.006315577375642156,0.33812187017034495,0.08583457948359424,-0.5365114945304451,1.319858911135853,0.247812948558705,-0.49885485190945617,-0.006315577375642156
4,-0.3362719314059892,-0.09223800503320025,0.5394346867822536,1.3494124933184373,-0.24278484240608497,0.5066516037922875,0.03219870038161651,0.3362719314059892,0.09223800503320025,-0.5394346867822536,1.3494124933184373,0.24278484240608497,-0.5066516037922875,-0.03219870038161651
4,-0.3350479535667513,-0.09647471336049283,0.5413687629824957,1.3689660755010218,-0.23945808877362848,0.511810180771426,0.04932379099542042,0.3350479535667513,0.09647471336049283,-0.5413687629824957,1.3689660755010218,0.23945808877362848,-0.511810180771426,-0.04932379099542042
4,-0.3344499366526313,-0.09854470446547199,0.5423137231311711,1.378519657683606,-0.23783268766133556,0.5143305828468719,0.05769084921705383,0.3344499366526313,0.09854470446547199,-0.5423137231311711,1.378519657683606,0.23783268766133556,-0.5143305828468719,-0.05769084921705383
4,-0.3343850398072705,-0.09876934007270344,0.5424162702852611,1.3795564132182834,-0.23765629899716387,0.514604097090157,0.05859884307260055,0.3343850398072705,0.09876934007270344,-0.5424162702852611,1.3795564132182834,0.23765629899716387,-0.514604097090157,-0.05859884307260055