ducvv03/ws/15cm.csv
segment_idx,openarm_left_joint1,openarm_left_joint2,openarm_left_joint3,openarm_left_joint4,openarm_left_joint5,openarm_left_joint6,openarm_left_joint7,openarm_right_joint1,openarm_right_joint2,openarm_right_joint3,openarm_right_joint4,openarm_right_joint5,openarm_right_joint6,openarm_right_joint7
0,0.004603944062255403,0.0027627709647640576,-0.009800674747675656,0.008944499259814767,0.0024196919705718766,0.009807709418237207,-0.007138844011351516,-0.004603944062255403,-0.0027627709647640576,0.009800674747675656,0.008944499259814767,-0.0024196919705718766,-0.009807709418237207,0.007138844011351516
0,0.005347013101878309,-0.0022372290352359334,-0.006051838185171642,0.008801551633351171,0.0034951444161036814,0.009698394256147878,-0.00632576099740653,-0.005347013101878309,0.0022372290352359334,0.006051838185171642,0.008801551633351171,-0.0034951444161036814,-0.009698394256147878,0.00632576099740653
0,0.0062383560239451475,-0.008234941727714544,-0.0015549492585799887,0.00863007987463109,0.004785195372648337,0.009567266069119172,-0.005350433334851207,-0.0062383560239451475,0.008234941727714544,0.0015549492585799887,0.00863007987463109,-0.004785195372648337,-0.009567266069119172,0.005350433334851207
0,0.006246146499179305,-0.008287362665869297,-0.0015156457526609296,0.008628581184893848,0.004796470617875456,0.00956611998844892,-0.005341908819973469,-0.006246146499179305,0.008287362665869297,0.0015156457526609296,0.008628581184893848,-0.004796470617875456,-0.00956611998844892,0.005341908819973469
1,0.006246146499179305,-0.008287362665869297,-0.0015156457526609296,0.008628581184893848,0.004796470617875456,0.00956611998844892,-0.005341908819973469,-0.006246146499179305,0.008287362665869297,0.0015156457526609296,0.008628581184893848,-0.004796470617875456,-0.00956611998844892,0.005341908819973469
1,0.008979438841234618,-0.008265554333665243,-0.0015074043994059152,0.013628581184893847,0.004809657560312757,0.009527014092443997,-0.00785038618825749,-0.008979438841234618,0.008265554333665243,0.0015074043994059152,0.013628581184893847,-0.004809657560312757,-0.009527014092443997,0.00785038618825749
1,0.01717931586740053,-0.008200129337053079,-0.0014826803396408713,0.02862858118489379,0.004849218387624658,0.009409696404429228,-0.015375818293109526,-0.01717931586740053,0.008200129337053079,0.0014826803396408713,0.02862858118489379,-0.004849218387624658,-0.009409696404429228,0.015375818293109526
1,0.03084577757767707,-0.008091087676032808,-0.0014414735733657986,0.05362858118489374,0.0049151530998111604,0.009214166924404613,-0.027918205134529608,-0.03084577757767707,0.008091087676032808,0.0014414735733657986,0.05362858118489374,-0.0049151530998111604,-0.009214166924404613,0.027918205134529608
1,0.049978823972064296,-0.007938429350604426,-0.0013837841005806964,0.0886285811848938,0.005007461696872264,0.008940425652370151,-0.04547754671251779,-0.049978823972064296,0.007938429350604426,0.0013837841005806964,0.0886285811848938,-0.005007461696872264,-0.008940425652370151,0.04547754671251779
1,0.07457844940971489,-0.007742154405775003,-0.0013096119382937038,0.13362857086611607,0.005126144151593342,0.008588472669030853,-0.0680538378501899,-0.07457844940971489,0.007742154405775003,0.0013096119382937038,0.13362857086611607,-0.005126144151593342,-0.008588472669030853,0.0680538378501899
1,0.10464465386261224,-0.007502262841768077,-0.0012189570865892955,0.1886285501773099,0.005271200463839228,0.00815830797478756,-0.09564707852183371,-0.10464465386261224,0.007502262841768077,0.0012189570865892955,0.1886285501773099,-0.005271200463839228,-0.00815830797478756,0.09564707852183371
1,0.14017743618220346,-0.007218754667747695,-0.001111819548930559,0.25362851701743233,0.005442630628068655,0.0076499315860729025,-0.1282572676733655,-0.14017743618220346,0.007218754667747695,0.001111819548930559,0.25362851701743233,-0.005442630628068655,-0.0076499315860729025,0.1282572676733655
1,0.18117679859954097,-0.006891629865912787,-0.0009881993185904818,0.32862847546773816,0.005640434655045476,0.007063343470966662,-0.16588440735233234,-0.18117679859954097,0.006891629865912787,0.0009881993185904818,0.32862847546773816,-0.005640434655045476,-0.007063343470966662,0.16588440735233234
1,0.22764274306027957,-0.006520888420739403,-0.0008480963897025756,0.41362842908740527,0.005864612554156628,0.006398543601631865,-0.2085284993443576,-0.22764274306027957,0.006520888420739403,0.0008480963897025756,0.41362842908740527,-0.005864612554156628,-0.006398543601631865,0.2085284993443576
1,0.27957526525325493,-0.006106530366625368,-0.0006915107752657526,0.5086283699900392,0.0061151643046026246,0.005655532039749415,-0.25618953969287295,-0.27957526525325493,0.006106530366625368,0.0006915107752657526,0.5086283699900392,-0.0061151643046026246,-0.005655532039749415,0.25618953969287295
1,0.336974366908108,-0.00564855568977026,-0.0005184424700648439,0.6136283013396648,0.006392089914728227,0.004834308760572912,-0.30886752998525535,-0.336974366908108,0.00564855568977026,0.0005184424700648439,0.6136283013396648,-0.006392089914728227,-0.004834308760572912,0.30886752998525535
1,0.39984005037555254,-0.005146964371418257,-0.000328891467012037,0.7286282274364329,0.006695389395874604,0.003934873730470102,-0.36656247237887085,-0.39984005037555254,0.005146964371418257,0.000328891467012037,0.7286282274364329,-0.006695389395874604,-0.003934873730470102,0.36656247237887085
1,0.46778823265371466,-0.004604820924490246,-0.00012401584336419431,0.8529255468864776,0.007023209715214302,0.002962722120849271,-0.42892187493463213,-0.46778823265371466,0.004604820924490246,0.00012401584336419431,0.8529255468864776,-0.007023209715214302,-0.002962722120849271,0.42892187493463213
1,0.5332224889840466,-0.004082735534054449,7.327985497736465e-05,0.9726241523439683,0.007338901439212914,0.002026537877458282,-0.4889741234956867,-0.5332224889840466,0.004082735534054449,-7.327985497736465e-05,0.9726241523439683,-0.007338901439212914,-0.002026537877458282,0.4889741234956867
1,0.5931901606302672,-0.0036042668080267636,0.00025409284680889273,1.0823227578014578,0.007628219278336925,0.001168565426077148,-0.5440094173201728,-0.5931901606302672,0.0036042668080267636,-0.00025409284680889273,1.0823227578014578,-0.007628219278336925,-0.001168565426077148,0.5440094173201728
1,0.6476912475923795,-0.0031694147464071684,0.000418423132130399,1.1820213632589516,0.007891163232586346,0.0003888047667058261,-0.5940277564080931,-0.6476912475923795,0.0031694147464071684,-0.000418423132130399,1.1820213632589516,-0.007891163232586346,-0.0003888047667058261,0.5940277564080931
1,0.6967257498703798,-0.0027781793491956945,0.0005662707109418714,1.2717199687164427,0.008127733301961157,-0.0003127441006556285,-0.6390291407594438,-0.6967257498703798,0.0027781793491956945,-0.0005662707109418714,1.2717199687164427,-0.008127733301961157,0.0003127441006556285,0.6390291407594438
1,0.7402936674642713,-0.002430560616392315,0.00069763558324332,1.3514185741739368,0.008337929486461377,-0.000936081176007262,-0.6790135703742282,-0.7402936674642713,0.002430560616392315,-0.00069763558324332,1.3514185741739368,-0.008337929486461377,0.000936081176007262,0.6790135703742282
1,0.778395000374052,-0.002126558547997044,0.0008125177490347394,1.4211171796314312,0.008521751786086995,-0.0014812064593490491,-0.7139810452524447,-0.778395000374052,0.002126558547997044,-0.0008125177490347394,1.4211171796314312,-0.008521751786086995,0.0014812064593490491,0.7139810452524447
1,0.8110297485997205,-0.0018661731440098952,0.0009109172083161248,1.4808157850889225,0.008679200200838006,-0.0019481199506809674,-0.7439315653940914,-0.8110297485997205,0.0018661731440098952,-0.0009109172083161248,1.4808157850889225,-0.008679200200838006,0.0019481199506809674,0.7439315653940914
1,0.8381979121412795,-0.0016494044044308462,0.0009928339610874844,1.5305143905464158,0.008810274730714418,-0.0023368216500030555,-0.7688651307991711,-0.8381979121412795,0.0016494044044308462,-0.0009928339610874844,1.5305143905464158,-0.008810274730714418,0.0023368216500030555,0.7688651307991711
1,0.8598994909987264,-0.001476252329259917,0.0010582680073488104,1.5702129960039066,0.008914975375716224,-0.002647311557315276,-0.7887817414676814,-0.8598994909987264,0.001476252329259917,-0.0010582680073488104,1.5702129960039066,-0.008914975375716224,0.002647311557315276,0.7887817414676814
1,0.876134485172063,-0.0013467169184970954,0.0011072193471001082,1.5999116014613977,0.008993302135843432,-0.002879589672617653,-0.8036813973996241,-0.876134485172063,0.0013467169184970954,-0.0011072193471001082,1.5999116014613977,-0.008993302135843432,0.002879589672617653,0.8036813973996241
1,0.8869028946612908,-0.0012607981721423675,0.0011396879803413822,1.6196102069188925,0.009045255011096046,-0.0030336559959102116,-0.8135640985950003,-0.8869028946612908,0.0012607981721423675,-0.0011396879803413822,1.6196102069188925,-0.009045255011096046,0.0030336559959102116,0.8135640985950003
1,0.8922047194664074,-0.0012184960901957527,0.0011556739070726256,1.6293088123763857,0.009070834001474059,-0.003109510527192916,-0.818429845053808,-0.8922047194664074,0.0012184960901957527,-0.0011556739070726256,1.6293088123763857,-0.009070834001474059,0.003109510527192916,0.818429845053808
1,0.8928081454988427,-0.0012136814879765013,0.0011574933418326964,1.6304126570386468,0.00907374526867825,-0.0031181438941065083,-0.8189836389244846,-0.8928081454988427,0.0012136814879765013,-0.0011574933418326964,1.6304126570386468,-0.00907374526867825,0.0031181438941065083,0.8189836389244846
2,0.8928081454988427,-0.0012136814879765013,0.0011574933418326964,1.6304126570386468,0.00907374526867825,-0.0031181438941065083,-0.8189836389244846,-0.8928081454988427,0.0012136814879765013,-0.0011574933418326964,1.6304126570386468,-0.00907374526867825,0.0031181438941065083,0.8189836389244846
2,0.8878081454988427,-0.0007674686075325507,0.0008748839513238889,1.6271643907962299,0.009561718738671045,-0.0030113250617706737,-0.8172911616519,-0.8878081454988427,0.0007674686075325507,-0.0008748839513238889,1.6271643907962299,-0.009561718738671045,0.0030113250617706737,0.8172911616519
2,0.8728081454988426,0.0005711700337993018,2.705577979746608e-05,1.6174195920689787,0.011025639148649433,-0.002690868564763169,-0.8122137298341462,-0.8728081454988426,-0.0005711700337993018,-2.705577979746608e-05,1.6174195920689787,-0.011025639148649433,0.002690868564763169,0.8122137298341462
2,0.8478081454988426,0.0028022344360190557,-0.0013859911727465723,1.6011782608568934,0.013465506498613413,-0.002156774403083994,-0.8037513434712231,-0.8478081454988426,-0.0028022344360190557,0.0013859911727465723,1.6011782608568934,-0.013465506498613413,0.002156774403083994,0.8037513434712231
2,0.8128081454988426,0.005925724599126712,-0.003364256906308226,1.5784403971599743,0.016881320788562987,-0.0014090425767331492,-0.7919040025631308,-0.8128081454988426,-0.005925724599126712,0.003364256906308226,1.5784403971599743,-0.016881320788562987,0.0014090425767331492,0.7919040025631308
2,0.7678081653518924,0.009941638751384953,-0.005907740298755829,1.5492060138758195,0.02127308008094582,-0.000447673509846557,-0.7766717138300365,-0.7678081653518924,-0.009941638751384953,0.005907740298755829,1.5492060138758195,-0.02127308008094582,0.000447673509846557,0.7766717138300365
2,0.7128081922973288,0.014849978031588263,-0.009016442071346045,1.5134751027144224,0.026640785621134963,0.0007273330701916184,-0.7580544729525134,-0.7128081922973288,-0.014849978031588263,0.009016442071346045,1.5134751027144224,-0.026640785621134963,-0.0007273330701916184,0.7580544729525134
2,0.6478082354196812,0.020650741629009796,-0.012690361710604193,1.4712476695775774,0.03298443652252851,0.0021159769693016037,-0.7360522830056337,-0.6478082354196812,-0.020650741629009796,0.012690361710604193,1.4712476695775774,-0.03298443652252851,-0.0021159769693016037,0.7360522830056337
2,0.572808288983429,0.027343930055502237,-0.01692949954071269,1.4225237107391846,0.04030403334488289,0.0037182583100157313,-0.7106651420479497,-0.572808288983429,-0.027343930055502237,0.01692949954071269,1.4225237107391846,-0.04030403334488289,-0.0037182583100157313,0.7106651420479497
2,0.4878083547763332,0.034929543151521136,-0.021733855460623907,1.3673032273606691,0.04859957591372206,0.0055341770541406845,-0.6818930506846104,-0.4878083547763332,-0.034929543151521136,0.021733855460623907,1.3673032273606691,-0.04859957591372206,-0.0055341770541406845,0.6818930506846104
2,0.3928084322631611,0.04340758096483206,-0.02710342950059021,1.305586219094315,0.05787106428128194,0.007563733213111052,-0.6497360087344417,-0.3928084322631611,-0.04340758096483206,0.02710342950059021,1.305586219094315,-0.05787106428128194,-0.007563733213111052,0.6497360087344417
2,0.28795906955010814,0.052764608194612844,-0.033029712398904766,1.2374704900063653,0.06810380575120628,0.009803710512344,-0.6142449760470774,-0.28795906955010814,-0.052764608194612844,0.033029712398904766,1.2374704900063653,-0.06810380575120628,-0.009803710512344,0.6142449760470774
2,0.18541315325530644,0.06191606993214639,-0.03882580017955299,1.1708512023667401,0.07811174307279932,0.011994477520227795,-0.5795336495020141,-0.18541315325530644,-0.06191606993214639,0.03882580017955299,1.1708512023667401,-0.07811174307279932,-0.011994477520227795,0.5795336495020141
2,0.09286723696050432,0.07017510590879208,-0.044056669179183626,1.1107284472119485,0.0871437334544068,0.013971606863439932,-0.5482072775021201,-0.09286723696050432,-0.07017510590879208,0.044056669179183626,1.1107284472119485,-0.0871437334544068,-0.013971606863439932,0.5482072775021201
2,0.01032132066570182,0.07754171612454988,-0.04872231939779666,1.0571022245419908,0.09519977689602874,0.015735098541980408,-0.5202658600473952,-0.01032132066570182,-0.07754171612454988,0.04872231939779666,1.0571022245419908,-0.09519977689602874,-0.015735098541980408,0.5202658600473952
2,-0.062224595629101036,0.08401590057941984,-0.0528227508353921,1.009972534356867,0.10227987339766512,0.01728495255584922,-0.49570939713783924,0.062224595629101036,-0.08401590057941984,0.0528227508353921,1.009972534356867,-0.10227987339766512,-0.01728495255584922,0.49570939713783924
2,-0.12477051192390434,0.08959765927340192,-0.056357963491969955,0.9693393766565768,0.10838402295931594,0.01862116890504637,-0.47453788877345243,0.12477051192390434,-0.08959765927340192,0.056357963491969955,0.9693393766565768,-0.10838402295931594,-0.01862116890504637,0.47453788877345243
2,-0.17731642821870833,0.09428699220649617,-0.059327957367530215,0.9352027514411203,0.11351222558098123,0.019743747589571863,-0.4567513349542346,0.17731642821870833,-0.09428699220649617,0.059327957367530215,0.9352027514411203,-0.11351222558098123,-0.019743747589571863,0.4567513349542346
2,-0.21986234451351244,0.09808389937870252,-0.061732732462072885,0.9075626587104978,0.11766448126266096,0.020652688609425696,-0.442349735680186,0.21986234451351244,-0.09808389937870252,0.061732732462072885,0.9075626587104978,-0.11766448126266096,-0.020652688609425696,0.442349735680186
2,-0.2524082608083167,0.10098838079002097,-0.06357228877559795,0.8864190984647091,0.1208407900043551,0.021347991964607856,-0.4313330909513065,0.2524082608083167,-0.10098838079002097,0.06357228877559795,0.8864190984647091,-0.1208407900043551,-0.021347991964607856,0.4313330909513065
2,-0.27495417710312103,0.10300043644045154,-0.06484662630810539,0.8717720707037545,0.12304115180606366,0.02182965765511835,-0.4237014007675962,0.27495417710312103,-0.10300043644045154,0.06484662630810539,0.8717720707037545,-0.12304115180606366,-0.02182965765511835,0.4237014007675962
2,-0.2875000933979254,0.10412006632999421,-0.06555574505959523,0.863621575427634,0.12426556666778664,0.02209768568095718,-0.41945466512905516,0.2875000933979254,-0.10412006632999421,0.06555574505959523,0.863621575427634,-0.12426556666778664,-0.02209768568095718,0.41945466512905516
2,-0.2903471360343353,0.10437414374910206,-0.06571666525644092,0.8617719849303196,0.12454342292268791,0.022158509234963507,-0.4184909541378145,0.2903471360343353,-0.10437414374910206,0.06571666525644092,0.8617719849303196,-0.12454342292268791,-0.022158509234963507,0.4184909541378145
3,-0.2903471360343353,0.10437414374910206,-0.06571666525644092,0.8617719849303196,0.12454342292268791,0.022158509234963507,-0.4184909541378145,0.2903471360343353,-0.10437414374910206,0.06571666525644092,0.8617719849303196,-0.12454342292268791,-0.022158509234963507,0.4184909541378145
3,-0.2911460855498349,0.10344735095998957,-0.06071666525644092,0.8612198646336948,0.1202410169798748,0.02501824366294127,-0.41890336718320903,0.2911460855498349,-0.10344735095998957,0.06071666525644092,0.8612198646336948,-0.1202410169798748,-0.02501824366294127,0.41890336718320903
3,-0.29354293409633353,0.10066697259265207,-0.045716665256440976,0.8595635037438202,0.10733379915143551,0.03359744694687455,-0.42014060631939265,0.29354293409633353,-0.10066697259265207,0.045716665256440976,0.8595635037438202,-0.10733379915143551,-0.03359744694687455,0.42014060631939265
3,-0.2975376816738313,0.0960330086470896,-0.020716665256441107,0.8568029022606961,0.08582176943737006,0.04789611908676332,-0.4222026715463654,0.2975376816738313,-0.0960330086470896,0.020716665256441107,0.8568029022606961,-0.08582176943737006,-0.04789611908676332,0.4222026715463654
3,-0.3031303271696738,0.08954546041399701,0.014283327780325391,0.852938060953231,0.05570493382940972,0.06791425610000798,-0.4250895622897815,0.3031303271696738,-0.08954546041399701,-0.014283327780325391,0.852938060953231,-0.05570493382940972,-0.06791425610000798,0.4250895622897815
3,-0.31032086928831876,0.08120432939622174,0.05928330574607305,0.8479689807167192,0.016983299304151364,0.0936518533493859,-0.42880127788088984,0.31032086928831876,-0.08120432939622174,-0.05928330574607305,0.8479689807167192,-0.016983299304151364,-0.0936518533493859,0.42880127788088984
3,-0.31910930823590267,0.07100961535464262,0.11428326993084843,0.8418956614087085,-0.03034313524846581,0.12510891157273518,-0.43333781842609664,0.31910930823590267,-0.07100961535464262,-0.11428326993084843,0.8418956614087085,0.03034313524846581,-0.12510891157273518,0.43333781842609664
3,-0.32949564431866957,0.058961317934012034,0.1792832222511943,0.8347181028175668,-0.08627437147759082,0.16228543186621652,-0.43869918408348346,0.32949564431866957,-0.058961317934012034,-0.1792832222511943,0.8347181028175668,0.08627437147759082,-0.16228543186621652,0.43869918408348346
3,-0.34143001745942403,0.04511727553226749,0.25397112748943873,0.8264707611386816,-0.15054190894824793,0.20500294665888624,-0.4448596373741721,0.34143001745942403,-0.04511727553226749,-0.25397112748943873,0.8264707611386816,0.15054190894824793,-0.20500294665888624,0.4448596373741721
3,-0.3528497275056741,0.0318702496322611,0.3254381590396722,0.8185790814069995,-0.21203794519963523,0.24587829277680145,-0.4507544245995601,0.3528497275056741,-0.0318702496322611,-0.3254381590396722,0.8185790814069995,0.21203794519963523,-0.24587829277680145,0.4507544245995601
3,-0.3626715385209248,0.020476809310480105,0.3869051905899036,0.8117916422685671,-0.2649291695653945,0.2810341700387599,-0.45582438573415884,0.3626715385209248,-0.020476809310480105,-0.3869051905899036,0.8117916422685671,0.2649291695653945,-0.2810341700387599,0.45582438573415884
3,-0.3708954505051764,0.010936954566924067,0.43837222214013516,0.8061084437233846,-0.3092155820455278,0.310470578444763,-0.4600695207779684,0.3708954505051764,-0.010936954566924067,-0.43837222214013516,0.8061084437233846,0.3092155820455278,-0.310470578444763,0.4600695207779684
3,-0.3775214634584289,0.0032506854015930137,0.4798392536903669,0.8015294857714517,-0.34489718264003494,0.33418751799481056,-0.463489829730989,0.3775214634584289,-0.0032506854015930137,-0.4798392536903669,0.8015294857714517,0.34489718264003494,-0.33418751799481056,0.463489829730989
3,-0.3825495773806826,-0.002581998185513383,0.5113062852406004,0.7980547684127681,-0.3719739713489174,0.3521849886889037,-0.4660853125932206,0.3825495773806826,0.002581998185513383,-0.5113062852406004,0.7980547684127681,0.3719739713489174,-0.3521849886889037,0.4660853125932206
3,-0.385979792271937,-0.006561096194394609,0.532773316790833,0.7956842916473343,-0.3904459481721729,0.36446299052704073,-0.467855969364663,0.385979792271937,0.006561096194394609,-0.532773316790833,0.7956842916473343,0.3904459481721729,-0.36446299052704073,0.467855969364663
3,-0.3878121081321923,-0.008686608625050858,0.5442403483410657,0.7944180554751502,-0.4003131131098022,0.3710215235092223,-0.46880180004531635,0.3878121081321923,0.008686608625050858,-0.5442403483410657,0.7944180554751502,0.4003131131098022,-0.3710215235092223,0.46880180004531635
3,-0.3881462487699164,-0.009074216512138026,0.54633147319465,0.7941871449802621,-0.40211248670924726,0.37221753585662126,-0.46897428147914977,0.3881462487699164,0.009074216512138026,-0.54633147319465,0.7941871449802621,0.40211248670924726,-0.37221753585662126,0.46897428147914977
4,-0.3881462487699164,-0.009074216512138026,0.54633147319465,0.7941871449802621,-0.40211248670924726,0.37221753585662126,-0.46897428147914977,0.3881462487699164,0.009074216512138026,-0.54633147319465,0.7941871449802621,0.40211248670924726,-0.37221753585662126,0.46897428147914977
4,-0.3879199842817155,-0.01038378951618098,0.546817703880278,0.7991871449802621,-0.40138792720402605,0.37365732756710884,-0.4647807941491981,0.3879199842817155,0.01038378951618098,-0.546817703880278,0.7991871449802621,0.40138792720402605,-0.37365732756710884,0.4647807941491981
4,-0.38724119081711283,-0.01431250852830983,0.5482763959371619,0.814187144980262,-0.39921424868836225,0.37797670269857153,-0.452200332159343,0.38724119081711283,0.01431250852830983,-0.5482763959371619,0.814187144980262,0.39921424868836225,-0.37797670269857153,0.452200332159343
4,-0.38610986837610833,-0.020860373548524574,0.5507075493653018,0.8391871449802619,-0.395591451162256,0.38517566125100944,-0.43123289550958466,0.38610986837610833,0.020860373548524574,-0.5507075493653018,0.8391871449802619,0.395591451162256,-0.38517566125100944,0.43123289550958466
4,-0.3845260170901918,-0.03002738381578889,0.5541111638821327,0.8741871420745959,-0.3905195350467728,0.39525420238771164,-0.4018784866368975,0.3845260170901918,0.03002738381578889,-0.5541111638821327,0.8741871420745959,0.3905195350467728,-0.39525420238771164,0.4018784866368975
4,-0.3824896377166957,-0.04181353494681668,0.5584872378601868,0.9191871195277095,-0.3839985027670937,0.4082123212895358,-0.36413711957734896,0.3824896377166957,0.04181353494681668,-0.5584872378601868,0.9191871195277095,0.3839985027670937,-0.4082123212895358,0.36413711957734896
4,-0.38000072988563915,-0.05621882908298166,0.5638357720945337,0.9741870855154495,-0.3760283531384412,0.42405002031078504,-0.3180087874738766,0.38000072988563915,0.05621882908298166,-0.5638357720945337,0.9741870855154495,0.3760283531384412,-0.42405002031078504,0.3180087874738766
4,-0.37705929361460255,-0.07324326612253233,0.5701567665473939,1.039187039649325,-0.3666090862171122,0.44276729933959025,-0.2634934906523071,0.37705929361460255,0.07324326612253233,-0.5701567665473939,1.039187039649325,0.3666090862171122,-0.44276729933959025,0.2634934906523071
4,-0.373694866325363,-0.09271588945413348,0.5773867468266675,1.1135342630247482,-0.35583528874041803,0.4641762025223308,-0.20113866280392187,0.373694866325363,0.09271588945413348,-0.5773867468266675,1.1135342630247482,0.35583528874041803,-0.4641762025223308,0.20113866280392187
4,-0.370532130183341,-0.11102116529938869,0.5841833032594661,1.1834245088863484,-0.3457073603481636,0.4843016818494248,-0.14252189070235627,0.370532130183341,0.11102116529938869,-0.5841833032594661,1.1834245088863484,0.3457073603481636,-0.4843016818494248,0.14252189070235627
4,-0.36782192301772093,-0.12670729513655793,0.5900073983210088,1.243314754747948,-0.3370285509663516,0.5015475777555436,-0.09229209326069426,0.36782192301772093,0.12670729513655793,-0.5900073983210088,1.243314754747948,0.3370285509663516,-0.5015475777555436,0.09229209326069426
4,-0.3655642448285026,-0.13977427896564115,0.5948590320112955,1.2932050006095475,-0.3297988605949822,0.5159138902406872,-0.050449270478935916,0.3655642448285026,0.13977427896564115,-0.5948590320112955,1.2932050006095475,0.3297988605949822,-0.5159138902406872,0.050449270478935916
4,-0.363759095615686,-0.15022211678663838,0.5987382043303262,1.3330952464711463,-0.3240182892340553,0.5274006193048555,-0.016993422357081338,0.363759095615686,0.15022211678663838,-0.5987382043303262,1.3330952464711463,0.3240182892340553,-0.5274006193048555,0.016993422357081338
4,-0.3624064753792713,-0.15805080859954967,0.601644915278101,1.3629854923327451,-0.319686836883571,0.5360077649480486,0.008075451104869777,0.3624064753792713,0.15805080859954967,-0.601644915278101,1.3629854923327451,0.319686836883571,-0.5360077649480486,-0.008075451104869777
4,-0.3615063841192584,-0.16326035440437506,0.6035791648546199,1.3828757381943442,-0.3168045035435292,0.5417353271702666,0.02475734990691763,0.3615063841192584,0.16326035440437506,-0.6035791648546199,1.3828757381943442,0.3168045035435292,-0.5417353271702666,-0.02475734990691763
4,-0.36105882183564725,-0.16585075420111453,0.6045409530598828,1.3927659840559432,-0.3153712892139299,0.5445833059715094,0.03305227404906201,0.36105882183564725,0.16585075420111453,-0.6045409530598828,1.3927659840559432,0.3153712892139299,-0.5445833059715094,-0.03305227404906201
4,-0.36100471180423793,-0.16616393209723504,0.6046572327195001,1.3939617092852874,-0.31519801439781897,0.5449276250261555,0.03405512576893384,0.36100471180423793,0.16616393209723504,-0.6046572327195001,1.3939617092852874,0.31519801439781897,-0.5449276250261555,-0.03405512576893384
